src/assets/img/login.svg

<?xml version="1.0"?>
<svg width="896" height="1024" xmlns="http://www.w3.org/2000/svg" xmlns:svg="http://www.w3.org/2000/svg">
 <g class="layer">
  <title>Layer 1</title>
  <path d="m640,576l0,-128l256,0l0,-128l-256,0l0,-128l-192,144l0,-144l-256,-128l512,0l0,192l64,0l0,-256l-704,0l0,832l384,192l0,-192l320,0l0,-320l-64,0l0,256l-256,0l0,-336l192,144z" fill="#fff" id="svg_1"/>
 </g>
</svg>

<svg height="1024" width="896" xmlns="http://www.w3.org/2000/svg"><path d="M640 576V448h256V320H640V192L448 336V192L192 64h512v192h64V0H64v832l384 192V832h320V512h-64v256H448V432z"/></svg>
